packages/components/src/telekom/icons/device/no-camera/default.svg

<svg width="24" height="24" xmlns="http://www.w3.org/2000/svg"><path d="M4.1 2.45a.722.722 0 01.965-.074l.085.074 18.05 18c.3.3.3.75 0 1.05-.15.15-.35.2-.55.2a.798.798 0 01-.471-.133L22.1 21.5l-18-18c-.3-.3-.3-.75 0-1.05zM3.4 5l1.5 1.5H3.5V17c0 .8.576 1.423 1.352 1.493L5 18.5h11.9l1.3 1.25c-.32.12-.64.208-.96.238L17 20H5a3.01 3.01 0 01-2.995-2.824L2 17v-6.5H.5v-4H2V5h1.4zM20 5v3.8L21.8 7h1.7v10h-1.7l-3.3-3.3V6.5h-7.2L9.8 5H20zm2 3.9l-2 2v2.2l2 2V8.9z" fill="#000" fill-rule="evenodd"/></svg>

<svg height="24" width="24" xmlns="http://www.w3.org/2000/svg"><path d="m4.1 2.45c.3-.3.75-.3 1.05 0l18.05 18c.3.3.3.75 0 1.05-.15.15-.35.2-.55.2s-.4-.05-.55-.2l-18-18c-.3-.3-.3-.75 0-1.05zm-.7 2.55 1.5 1.5h-1.4v10.5c0 .85.65 1.5 1.5 1.5h11.9l1.3 1.25c-.4.15-.8.25-1.2.25h-12c-1.65 0-3-1.35-3-3v-6.5h-1.5v-4h1.5v-1.5zm16.6 0v3.8l1.8-1.8h1.7v10h-1.7l-3.3-3.3v-7.2h-7.2l-1.5-1.5zm2 3.9-2 2v2.2l2 2z" fill="#262626" fill-rule="evenodd"/></svg>
